!!!COM: Hindemith, Paul
!!!OTL: Clarinet Quintet, op. 30
!!!OMV: III: Schneller Ländler (Fast Ländler)
!!!example: 623
!!!work: Hin-20
**kern	**dynam	**kern	**dynam	**kern	**dynam	**kern	**dynam	**kern	**dynam
*part5	*part5	*part4	*part4	*part3	*part3	*part2	*part2	*part1	*part1
*staff5	*	*staff4	*	*staff3	*	*staff2	*	*staff1	*
*I"Violoncello	*	*I"Viola	*	*I"Violin II	*	*I"Violin I	*	*I"Piano	*
*I'Vc.	*	*I'Vla.	*	*I'Vln. II	*	*I'Vln. I	*	*I'Pno.	*
*clefF4	*	*clefC3	*	*clefG2	*	*clefG2	*	*clefG2	*
*k[]	*	*k[]	*	*k[]	*	*k[]	*	*k[]	*
*C:	*	*C:	*	*C:	*	*C:	*	*C:	*
*M3/4	*	*M3/4	*	*M3/4	*	*M3/4	*	*M3/4	*
=59	=	=	=	=	=	=	=	=	=
*	*	*	*	*	*	*^	*	*	*
4CC^ 4C	.	4C^ 4c	.	4c^	.	4c^	4ryy	.	8r	.
.	.	.	.	.	.	.	.	.	(8cc#X	pp
4G	pp	4r	.	(8ffL	pp	(8aaL	2a	pp	8eeL	.
.	.	.	.	8eeJ	.	8ff#XJ	.	.	8ggJ	.
4F	.	4d	pp	12ffL	.	8gg#XL	.	.	8bbL	.
.	.	.	.	12gg	.	.	.	.	.	.
.	.	.	.	.	.	8aaJ)	.	.	8eeJ	.
.	.	.	.	12ffJ	.	.	.	.	.	.
=60	=60	=60	=60	=60	=60	=60	=60	=60	=60	=60
4B-X	.	4C^	.	8aa-XL	.	(8ff#XL	4a	.	8ggL	.
.	.	.	.	8bb-XJ	.	8eeJ)	.	.	8bbJ	.
4G	.	4r	.	4ff)	.	(12aaL	4a	.	8eeL	.
.	.	.	.	.	.	12gg#X	.	.	.	.
.	.	.	.	.	.	.	.	.	8ggJ	.
.	.	.	.	.	.	12ff#J)	.	.	.	.
4F	.	4d	.	(12bb-L	.	(8ff#L	4a	.	8bbL	.
.	.	.	.	12aa-	.	.	.	.	.	.
.	.	.	.	.	.	8aaJ)	.	.	8eeJ)	.
.	.	.	.	12ggJ	.	.	.	.	.	.
=61	=61	=61	=61	=61	=61	=61	=61	=61	=61	=61
4B-X	.	4C^	.	8eeL	.	(12gg#XL	4a	.	(8aa^L	.
.	.	.	.	.	.	12ff#X	.	.	.	.
.	.	.	.	8aa-XJ)	.	.	.	.	8ggJ)	.
.	.	.	.	.	.	12eeJ)	.	.	.	.
4G	.	4r	.	(8aa-L	.	4ff#	4a	.	(8gg^L	.
.	.	.	.	8eeJ)	.	.	.	.	8ff#XJ)	.
4F	.	4d	.	(8eeL	.	(12ccc#XL	4a	.	(8ff#^L	.
.	.	.	.	.	.	12bb	.	.	.	.
.	.	.	.	8ffJ)	.	.	.	.	8eeJ)	.
.	.	.	.	.	.	12aaJ)	.	.	.	.
=62	=62	=62	=62	=62	=62	=62	=62	=62	=62	=62
4B-X	.	4C^	.	(8ffL	.	(8bbL	4a	.	(12eeL	.
.	.	.	.	.	.	.	.	.	12dd	.
.	.	.	.	8bb-XJ)	.	8ff#XJ)	.	.	.	.
.	.	.	.	.	.	.	.	.	12ff#XJ	.
4G	.	4r	.	(12ffL	.	4aa	4a	.	8eeL	.
.	.	.	.	12gg	.	.	.	.	.	.
.	.	.	.	.	.	.	.	.	8ddJ	.
.	.	.	.	12aa-XJ	.	.	.	.	.	.
4F	.	4d	.	8bb-L	.	(12gg#XL	4a	.	8ccL	.
.	.	.	.	.	.	12ff#	.	.	.	.
.	.	.	.	8aa-J)	.	.	.	.	8ggJ)	.
.	.	.	.	.	.	12eeJ)	.	.	.	.
=63	=63	=63	=63	=63	=63	=63	=63	=63	=63	=63
!!linebreak:original
4B-X	.	4C^	.	(8eeL	.	(8ff#XL	4a	.	(12ff#XL	.
.	.	.	.	.	.	.	.	.	12ee	.
.	.	.	.	8ggJ	.	8aaJ)	.	.	.	.
.	.	.	.	.	.	.	.	.	12ddJ	.
4G	.	4r	.	8bb-XL	.	4ee	4a	.	12eeL	.
.	.	.	.	.	.	.	.	.	12dd	.
.	.	.	.	8gg-XJ)	.	.	.	.	.	.
.	.	.	.	.	.	.	.	.	12ccJ)	.
4F	.	4d	.	(8ffL	.	(8aaL	[4a	.	(8eeL	.
.	.	.	.	8eeJ	.	8ff#J	.	.	8ggJ	.
=64	=64	=64	=64	=64	=64	=64	=64	=64	=64	=64
4B-X	.	4C^	.	12ffL	.	8gg#XL	4a]	.	8bbL	.
.	.	.	.	12gg	.	.	.	.	.	.
.	.	.	.	.	.	8aaJ)	.	.	8eeJ	.
.	.	.	.	12ffJ	.	.	.	.	.	.
4G	.	4r	.	8aa-XL	.	(8ff#XL	4a	.	8ggL	.
.	.	.	.	8bb-XJ	.	8eeJ)	.	.	8bbJ	.
4F	.	4d	.	4ff)	.	(12aaL	4a	.	8eeL	.
.	.	.	.	.	.	12gg#	.	.	.	.
.	.	.	.	.	.	.	.	.	8ggJ	.
.	.	.	.	.	.	12ff#J)	.	.	.	.
=65	=65	=65	=65	=65	=65	=65	=65	=65	=65	=65
4B-X	.	4C^	.	(12bb-XL	.	(8ff#XL	4a	.	8bbL	.
.	.	.	.	12aa-X	.	.	.	.	.	.
.	.	.	.	.	.	8aaJ)	.	.	8eeJ)	.
.	.	.	.	12ffJ	.	.	.	.	.	.
4G	.	4r	.	8eeL	.	(12gg#XL	2a	.	(8aa^L	.
.	.	.	.	.	.	12ff#	.	.	.	.
.	.	.	.	8aa-J)	.	.	.	.	8ggJ)	.
.	.	.	.	.	.	12eeJ	.	.	.	.
4F	.	4d	.	(8aa-L	.	4ff#)	.	.	(8gg^L	.
.	.	.	.	8eeJ)	.	.	.	.	8ff#XJ)	.
=66	=66	=66	=66	=66	=66	=66	=66	=66	=66	=66
4B-X	.	4C^	.	(8eeL	.	(12ccc#XL	4a	.	(8ff#X^L	.
.	.	.	.	.	.	12bb	.	.	.	.
.	.	.	.	8ffJ)	.	.	.	.	8eeJ)	.
.	.	.	.	.	.	12aaJ)	.	.	.	.
4G	.	4r	.	(8ffL	.	(8bbL	2a	.	(12eeL	.
.	.	.	.	.	.	.	.	.	12dd	.
.	.	.	.	8bb-XJ)	.	8ff#XJ	.	.	.	.
.	.	.	.	.	.	.	.	.	12ff#J	.
4F	.	4d	.	(12ffL	.	4aa)	.	.	8eeL	.
.	.	.	.	12gg	.	.	.	.	.	.
.	.	.	.	.	.	.	.	.	8ddJ)	.
.	.	.	.	12aa-XJ)	.	.	.	.	.	.
*	*	*	*	*	*	*v	*v	*	*	*
==	==	==	==	==	==	==	==	==	==
*-	*-	*-	*-	*-	*-	*-	*-	*-	*-
!!!CDT: 1895/11/16-1963/12/28
!!!CBL: Hanau, Germany
!!!CDL: Frankfurt, Germany
!!!CNT: German
!!!AGN: Instrumental; Chamber
!!!MCN:
!!!MDT: 1923/08/07
!!!MGN: Quatuor Amar
!!!MLC: Salzburg, Austria
!!!MPD: 1923
!!!MPN: Amar, Licco; Caspar, Walter; Dreisbach, Philipp; Frank, Maurits; Hindemith, Paul
!!!ODT: 1923 (rev. 1954)
!!!PDT: 1935
!!!excerpt-start-measure: 59
!!!excerpt-end-measure: 66
!!!excerpt-start-time: 0:59
!!!excerpt-end-time: 1:08
!!!EEV: 2020/01/17
!!!system-decoration: [(s1)][(s2,s3,s4,s5)]
!!!ONB: Converted from MusicXML on 2020/01/17
